X: 34647
T: Road To Batoche
R: barndance
M: 4/4
K: Dmajor
|:"Em" E2B,2 E3F|G3A B2AG|"D" FEDF AFDF|ABAG FEDF|
"Em" E2B,2 EDEF|GFGA B2 AG|"D" FEDF ABAG|"Bm7"FEDF "Em" E4:|
|:"Em" B2 ee e2 ef|geaf gfec|"D" d2 fd ABde|fdfd edBA|
"Em" B2 ee e2 ef|geaf gfec|"D" d2 fd ABAG|"Bm7" FGAF "Em" E4:|

